**kern	**kern	**dynam
*part1	*part1	*part1
*staff2	*staff1	*
*I"Piano	*	*
*clefF4	*clefG2	*
*k[]	*k[]	*
=1	=1	=1
2BBB 2BB	2B 2b	.
2GGG 2GG	2G 2g	.
=	=	=
*	*^	*
2AAA-X 2AA-X	2cc	2c 2f#X	sf
2GGG 2GG	4.dd	2fn	.
.	8b	.	.
*	*v	*v	*
=	=	=
2.CC; 2.C	2.c; 2.e 2.cc	.
4E	4e	p
=	=	=
2.EE 2.E	2.G#X 2.B 2.e	.
4EE 4E	4G# 4B 4e	.
=	=	=
2AA 2E	2A 2c 2e	.
4AA 4E	4A 4c 4e	.
4AA 4E	4A 4c 4e	.
=	=	=
!	!LO:TX:b:i:t=cresc.	!
4FF 4F	4A 4c 4f	.
4FF 4F	4A 4c 4e-X 4f	.
4FF 4F	4A 4c 4e- 4f	.
4FF 4F	4A 4c 4e- 4f	.
=	=	=
4BB-X 4F	4B-X 4d 4f	.
4BB- 4F	4B- 4d 4f	.
4BB- 4F	4B- 4d 4f	.
4BBB-X 4BB-	4B- 4d 4f	.
=	=	=
2AAA 2AA	2c 2d 2f#X	f
2FFF#X 2FF#X	2c 2d 2a	sf
=	=	=
2.GGG 2.GG	2.B-X 2.d 2.b-X	sf
4EE-X 4E-X	4G 4g	.
=	=	=
*-	*-	*-
!!!system-decoration: {(s1,s2)}
